!!!COM:	Anonymous
!!!OTL:	Avertissiez / Averte oculus
!!!AGN:	Song; Chanson
!!!SCT:	Ano3015
!!!SCA:	Ano3015
!!!SMS:	Escorial B
!!!folio:	
!!!voices:	3
**kern	**kern	**kern
*staff3	*staff2	*staff1
*Ivox	*Ivox	*Ivox
*I"Contratenor	*I"Tenor	*I"Superius
*I'Ct	*I'T	*I'S
*clefGv2	*clefGv2	*clefG2
*k[b-]	*k[b-]	*k[]
*M2/1	*M2/1	*M2/1
*met(C|)	*met(C|)	*met(C|)
*MM336	*MM336	*MM336
=1-	=1-	=1-
0G	0G	[0g
=2	=2	=2
0C	0c	1g]
.	.	1e
=3	=3	=3
1G	1B-	1d
1E	1c	1e
=4	=4	=4
1D	0d	1f
1E	.	1g
=5	=5	=5
0F	1c	0a
.	1c	.
=6	=6	=6
0G	0B-	1.dd
.	.	2cc
=7	=7	=7
0d	0G	1.b-
.	.	2a
=8	=8	=8
1d	0r	0g
1e	.	.
=9	=9	=9
0f	0d	1b-i
.	.	[1a
=10	=10	=10
1e	1c	1a]
1f	1A	1cc
=11	=11	=11
2g	0G	1.b-i
2f	.	.
2e	.	.
2d	.	4a
.	.	4g
=12	=12	=12
1.c	0A	1.f#
2Bni	.	2e
=13	=13	=13
[0d	[0G	0g
=14	=14	=14
0d]	0G]	0r
=15	=15	=15
[0G	[0g	0bn
=16	=16	=16
0G]	0g]	0b
=17	=17	=17
0d	0f#i	0a
=18	=18	=18
0G	0g	1b
.	.	[1dd
=19	=19	=19
1r	1f	1dd]
1d	1d	2dd
.	.	2cc
=20	=20	=20
[0g	0c	1.ee
.	.	2dd
=21	=21	=21
0g]	0r	0b
=22	=22	=22
0G	0g	1ee
.	.	[1dd
=23	=23	=23
0c	0e	2dd]
.	.	2cc
.	.	[1cc
=24	=24	=24
0G	1d	2cc]
.	.	2b
.	1d	2b
.	.	2a
=25	=25	=25
1g	0c	0cc
1e	.	.
=26	=26	=26
1d	1d	1r
1A	1e	1cc
=27	=27	=27
0B-	0d	1.dd
.	.	2cc
=28	=28	=28
0GN	0g	0bN
=29	=29	=29
1.f	0d	0a
4e	.	.
4d	.	.
=30	=30	=30
0c	0A	1f
.	.	1e
=31	=31	=31
0G	1B-	1d
.	1A	[1g
=32	=32	=32
0d	0G	2g]
.	.	2a
.	.	1b-
=33	=33	=33
2c	1A	1a
2B-	.	.
2A	1A	[1cc
2F	.	.
=34	=34	=34
0G	0B-	2cc]
.	.	2b-i
.	.	2a
.	.	2g
=35	=35	=35
[0D	0d	1.f
.	.	2g
=36	=36	=36
0D]	0r	0a
=37	=37	=37
0d	0G	1r
.	.	1dd
=38	=38	=38
0r	1A	1cc
.	1c	1a
=39	=39	=39
0D	0d	2b
.	.	2a
.	.	2g
.	.	2f
=40	=40	=40
0A	0c#i	0e
=41	=41	=41
0D	[0d	0d
=42	=42	=42
0F	0d]	0r
=43	=43	=43
1G	0G	0b-
1E	.	.
=44	=44	=44
0F	0c	1a
.	.	1a
=45	=45	=45
0G	1B-	0dd
.	1c	.
=46	=46	=46
0r	0d	1a
.	.	[1b-i
=47	=47	=47
1r	1c	2b-]
.	.	2a
1F	1c	[1a
=48	=48	=48
[0G	0B-	2a]
.	.	2g
.	.	[1g
=49	=49	=49
1G]	0G	2g]
.	.	2f
1F	.	[1d
=50	=50	=50
[0D	0r	2d]
.	.	2e
.	.	[1f
=51	=51	=51
0D]	0d	2f]
.	.	2g
.	.	[1a
=52	=52	=52
1A	1c	2a]
.	.	2b
1F	1A	1cc
=53	=53	=53
0G	0G	1.b
.	.	4a
.	.	4g
=54	=54	=54
0D	0A	1.f#i
.	.	2e
=55	=55	=55
0E	[0Gl	[0gl
=56	=56	=56
0Cl	0G]	0g]
==	==	==
*-	*-	*-
!!!RDF**kern: l=long note in original notation
!!!RDF**kern: i=editorial accidental
!!!RDF**kern: N=signum congruentiae
!!!ENC:	Chris Gage 02-19-2015
!!!END:	2015/02/25/
!!!EED:	Jesse Rodin
!!!EEV:	2016/02/23/
!!!ONB:	Translated from MusicXML and edited on 2016/02/23/ by Craig Sapp
!!muse2ps: C^@{COM}\n@{SMS} @{folio}^v95,95,150Q16
